X:1
T:Battle of Harlaw
M:6/8
L:1/4
K:C
 E/2| G G/2 E G/2| A A/2 c c/2| G G/2 E G/2| A3/2 z/2 c/2c/2| G G/2 E G/2|\
 A A/2 G G/2| A C/2 C D/2| D/2- E E D/2| C A,/2 A,3/2| C C/2 A,3/2|\
 G, G,/2C/2 D| C3/2- C|
